assets/icons/18px/outline/clarus-the-dogcow-18px.svg

<svg width="18" height="18" viewBox="0 0 18 18" fill="none" xmlns="http://www.w3.org/2000/svg">
<path d="M11.9181 7.54352H9.22803H8.71613C8.16836 7.54352 7.66724 7.23518 7.42033 6.74622C7.22483 6.35905 7.14941 5.92233 7.20373 5.49202L7.24295 5.18133C7.32511 4.53054 6.56911 4.11435 6.06317 4.53183L5.95822 4.61843C5.65371 4.8697 5.19472 4.77348 5.01677 4.42106C4.76456 3.92158 4.03074 3.99028 3.87561 4.52789L3.60765 5.45656L2.43874 7.19271C1.99265 7.85527 2.36531 8.75836 3.14884 8.91353C3.22036 8.92769 3.29309 8.93482 3.36599 8.93482H4.01274C4.56503 8.93482 5.01274 9.38254 5.01274 9.93482V13.057C5.01274 13.3135 4.91444 13.5601 4.73681 13.7452L4.70578 13.7775C4.32049 14.1785 4.35398 14.8138 4.89578 14.9393C5.61276 15.1053 6.4698 15.0206 6.85266 14.6852C6.97043 14.582 7 14.4184 7 14.2618V12.0145C7 11.4651 7.44331 11.0185 7.99275 11.0145L9.66265 11.0024C9.88149 11.0009 10.0948 11.0711 10.2699 11.2024L11.6 12.2C11.8518 12.3889 12 12.6852 12 13V13.0872C12 13.3515 11.895 13.605 11.7081 13.7919C11.3176 14.1824 11.3528 14.8057 11.8907 14.931C12.6526 15.1084 13.5928 15.0259 13.9966 14.6835C14.116 14.5822 14.1459 14.4185 14.1459 14.2619V9.78176C14.1459 9.68911 14.0933 9.60446 14.0103 9.56335C13.8104 9.46439 13.8349 9.15777 14.0359 9.06112C15.1831 8.50955 15.5164 7.50529 15.4994 6.57324C15.4864 5.85903 14.6394 5.66355 14.1318 6.16616L13.3253 6.96469C12.9509 7.33551 12.4451 7.54352 11.9181 7.54352Z" stroke="white"/>
<path d="M5.375 6.87513C5.375 7.08224 5.20711 7.25013 5 7.25013C4.79289 7.25013 4.625 7.08224 4.625 6.87513C4.625 6.66802 4.79289 6.50013 5 6.50013C5.20711 6.50013 5.375 6.66802 5.375 6.87513Z" fill="white"/>
<path d="M5.28522 8.95246L5 9V12L6.20887 10.5896C6.81682 9.88038 6.20667 8.79889 5.28522 8.95246Z" fill="white"/>
<path d="M12.0727 7.72118L12.1522 7.54353H8.56525L8.7654 7.89048C9.05076 8.3851 9.54759 8.72115 10.1129 8.80191C10.9341 8.91922 11.7337 8.4783 12.0727 7.72118Z" fill="white" stroke="white" stroke-linecap="round"/>
</svg>

<svg width="18" height="18" fill="none" xmlns="http://www.w3.org/2000/svg"><path d="M11.918 7.544H8.716a1.452 1.452 0 0 1-1.296-.798 2.177 2.177 0 0 1-.216-1.254l.039-.31a.724.724 0 0 0-1.18-.65l-.105.086a.616.616 0 0 1-.941-.197.616.616 0 0 0-1.141.107l-.268.929-1.17 1.736a1.118 1.118 0 0 0 .928 1.742h.647a1 1 0 0 1 1 1v3.122a.993.993 0 0 1-.276.688l-.031.033c-.386.4-.352 1.036.19 1.161.717.166 1.574.082 1.957-.254.117-.103.147-.267.147-.423v-2.248a1 1 0 0 1 .993-1l1.67-.012a1 1 0 0 1 .607.2l1.33.998a1 1 0 0 1 .4.8v.087a.997.997 0 0 1-.292.705c-.39.39-.355 1.014.183 1.139.762.177 1.702.095 2.106-.247.119-.102.149-.265.149-.422v-4.48a.244.244 0 0 0-.136-.219c-.2-.099-.175-.405.026-.502 1.147-.551 1.48-1.556 1.463-2.488-.013-.714-.86-.91-1.367-.407l-.807.799a2 2 0 0 1-1.407.579z" stroke="#fff"/><path d="M5.375 6.875a.375.375 0 1 1-.75 0 .375.375 0 0 1 .75 0zm-.09 2.077L5 9v3l1.209-1.41c.608-.71-.002-1.791-.924-1.638z" fill="#fff"/><path d="M12.073 7.721l.08-.177H8.564l.2.346a1.86 1.86 0 0 0 3.308-.169z" fill="#fff" stroke="#fff" stroke-linecap="round"/></svg>
